icons/2_Variations/HashiCorp bg.var.svg

<svg width="1024" height="1024" fill="none" xmlns="http://www.w3.org/2000/svg"><g clip-path="url(#a)"><path d="M512 1024c282.77 0 512-229.23 512-512S794.77 0 512 0 0 229.23 0 512s229.23 512 512 512Z" fill="#728DBE"/><path d="M474.28 272 285.32 380.99v261.85l70.98 40.98V421.97l117.98-68.09V272Zm75.43 0v208.52h-75.43v-77.81l-71.02 40.98v267.15l71.02 41.07V543.98h75.43v77.3l70.98-40.98V312.98L549.71 272Zm0 480 188.96-108.99V381.16l-71.02-40.98v261.85l-117.94 68.09V752Z" fill="#fff"/></g><defs><clipPath id="a"><path fill="#fff" d="M0 0h1024v1024H0z"/></clipPath></defs></svg>

<svg width="1024" height="1024" viewBox="0 0 1024 1024" fill="none" xmlns="http://www.w3.org/2000/svg">
<g clip-path="url(#clip0_3_104)">
<path d="M512 1024C794.77 1024 1024 794.77 1024 512C1024 229.23 794.77 0 512 0C229.23 0 0 229.23 0 512C0 794.77 229.23 1024 512 1024Z" fill="#728DBE"/>
<path d="M474.28 272L285.32 380.99V642.84L356.3 683.82V421.97L474.28 353.88V272ZM549.71 272V480.52H474.28V402.71L403.26 443.69V710.84L474.28 751.91V543.98H549.71V621.28L620.69 580.3V312.98L549.71 272ZM549.71 752L738.67 643.01V381.16L667.65 340.18V602.03L549.71 670.12V752Z" fill="white"/>
</g>
<defs>
<clipPath id="clip0_3_104">
<rect width="1024" height="1024" fill="white"/>
</clipPath>
</defs>
</svg>
